X: 29899
T: O'Neill's Maggot
R: jig
M: 6/8
K: Dmajor
|:A|d2 e f2 e|dcd B^AB|A2 F D2 F|E3 ABc|
d3 f2 e|d2 e dcB|A2 F d2 F|D3- D2:|
|:E|D[CF]D A2 F|DED A2 F|E^DE B2 G|E3 BAF|
D2 D A2 F|DD/D/D A2 F|G2 E A2 [CFc]|[D3d3]- [D2d2]:|
|:^g|a3 a2 f|aba a2 f|g2 e A2 e|g3 ba^g|
aba a2 f|aa/a/a a2 f|g2 e b2 c|d3- d2:|

